contributed-vectors/joox_alt.svg

<svg width="192" height="192" viewBox="0 0 192 192" fill="none" xmlns="http://www.w3.org/2000/svg">
<g clip-path="url(#clip0)">
<path d="M172 28.6V162.4C172 167.7 167.7 172 162.4 172H28.6C23.3 172 19 167.7 19 162.4V28.6C19 23.3 23.3 19 28.6 19H162.5C167.7 19 172 23.3 172 28.6Z" fill="#98DC9A"/>
<path d="M125.2 115.9L126.9 126.6L116.4 124.9C110.5 129.1 103.3 131.5 95.6001 131.5C75.7001 131.5 59.6001 115.4 59.6001 95.5C59.6001 75.6 75.7001 59.5 95.6001 59.5C115.5 59.5 131.6 75.6 131.6 95.5C131.5 103.1 129.2 110.1 125.2 115.9Z" fill="#4A4A4A"/>
<path d="M95.5001 114.6C106.049 114.6 114.6 106.049 114.6 95.5C114.6 84.9514 106.049 76.4 95.5001 76.4C84.9515 76.4 76.4001 84.9514 76.4001 95.5C76.4001 106.049 84.9515 114.6 95.5001 114.6Z" fill="white"/>
<path d="M95.5002 100.8C98.4273 100.8 100.8 98.4271 100.8 95.5C100.8 92.5729 98.4273 90.2 95.5002 90.2C92.5731 90.2 90.2002 92.5729 90.2002 95.5C90.2002 98.4271 92.5731 100.8 95.5002 100.8Z" fill="#4A4A4A"/>
</g>
<defs>
<clipPath id="clip0">
<rect width="192" height="192" fill="white"/>
</clipPath>
</defs>
</svg>

<svg xmlns="http://www.w3.org/2000/svg" width="192" height="192" fill="none"><g clip-path="url(#a)"><path fill="#98DC9A" d="M172 28.6v133.8c0 5.3-4.3 9.6-9.6 9.6H28.6c-5.3 0-9.6-4.3-9.6-9.6V28.6c0-5.3 4.3-9.6 9.6-9.6h133.9c5.2 0 9.5 4.3 9.5 9.6Z"/><path fill="#4A4A4A" d="m125.2 115.9 1.7 10.7-10.5-1.7c-5.9 4.2-13.1 6.6-20.8 6.6-19.9 0-36-16.1-36-36s16.1-36 36-36 36 16.1 36 36c-.1 7.6-2.4 14.6-6.4 20.4Z"/><path fill="#fff" d="M95.5 114.6c10.549 0 19.1-8.551 19.1-19.1 0-10.549-8.551-19.1-19.1-19.1-10.549 0-19.1 8.551-19.1 19.1 0 10.549 8.551 19.1 19.1 19.1Z"/><path fill="#4A4A4A" d="M95.5 100.8a5.3 5.3 0 1 0 0-10.6 5.3 5.3 0 0 0 0 10.6Z"/></g><defs><clipPath id="a"><path fill="#fff" d="M0 0h192v192H0z"/></clipPath></defs></svg>
